X: 18
T: RONDO.	 Op. 5.
C: Fryderyk Chopin
%%abc-version 2.0
%%abcx-abcm2ps-target-version 5.9.1 (29 Sep 2008)
%%abc-creator hum2abc beta
%%abcx-conversion-date 2021/10/03 11:23:37
%%abc-edited-by Marta Chmielewska
%%abcx-initial-encoding-date 2020-12-28
%%humdrum-veritas 2769648915
%%humdrum-veritas-data 2236305561
%%linebreak <none>
%%barnumbers 0
L: 1/8
M: 3/4
N: Derived from 005-1-SC.krn
P: 3 MORCEAUX Favorits POUR le Piano
Q: "(M.M. [quarter] = 132.)" 1/4=132
%%staves {1 2}
V: 1 clef=treble
V: 2 clef=bass
K: F
[V:1] F,A,2<=B,2D | 
[V:2] F,,A,,2<=B,,2D, | 
[V:1] CG,F,G,A,C, | 
[V:2] C,G,,F,,G,,A,,C,, | 
[V:1] F,A,F,A, =B,z/D/ | 
[V:2] F,,A,,F,,A,, =B,,z/D,/ | 
[V:1] C!trill!G,F,G,A,z/C,/ | 
[V:2] C,G,,F,,G,,A,,z/C,,/ | 
[V:1] F, z/ A/=B3d | 
[V:2] [F,,F,,,] z[D2^G,2F,2][D2G,2F,2] | 
[V:1] c!mordent!GFGAz/C/ | 
[V:2] [C2A,2F,2][C2A,2F,2][CB,F,] z | 
[V:1] FAFA =Bz/d/ | 
[V:2] F,,2[C2A,2F,2][D2^G,2F,2] | 
[V:1] c!mordent!GFGAz/C/ | 
[V:2] [C2A,2F,2][C2A,2F,2][CB,F,] z | 
[V:1] Fz/A/=B3d | 
[V:2] F,,2[D2^G,2F,2][D2_A,2F,2] | 
[V:1] !mordent!cz/=B/ABc.A & _E2x4 | 
[V:2] =A,>=B,[E2C2F,2][E2A,2F,2] & F,2x4 | 
[V:1] {/A} ez/A/!mordent!=B2^GE | 
[V:2] [=EC=E,] z[E2D2E,2][EDE,] z | 
[V:1] A/c z/!mordent!_B2GE | 
[V:2] !arpeggio![C2E,2A,,2][C2B,2C,2][CB,C,] z | 
[V:1] (3FAa[=b3=B3][d'd] | 
[V:2] !arpeggio![A,2C,2F,,2][D2^G,2F,2][D2G,2F,2] | 
[V:1] .[c'c] !mordent!gfgaz/c/ | 
[V:2] [C2A,2F,2][C2A,2F,2][CG,F,] z | 
[V:1] (3faa'[=b'3=b3][d''d'] | 
[V:2] !arpeggio![A,2C,2F,,2][D2^G,2F,2][D2G,2F,2] | 
[V:1] [c''c'] !mordent!g'f'g'a'z/c'/ | 
[V:2] [C2A,2F,2][C2A,2F,2][CB,F,] z | 
[V:1] (3f'a'a!accent!f3e | 
[V:2] !arpeggio![A,2C,2F,,2][C2A,2F,2][^C2A,2F,2] | 
[V:1] !mordent!d^cdefg | 
[V:2] !arpeggio![D2F,2B,,2][D2B,2F,2][D2B,2F,2] | 
[V:1] !accent!a2(3gfd (3cBG | 
[V:2] !arpeggio![F2A,2C,2][F2C2A,2][E2C2B,2] | 
[V:1] F2z2A2 | 
[V:2] F,2[F2A,2]z2 | 
[V:1] dz/f/^g3b | 
[V:2] [D,2D,,2][F2D2A,2][F2D2A,2] | 
[V:1] a!mordent!edefz/A/ | 
[V:2] !arpeggio![A2F2D2A,2]z2A,,3/F,/ | 
[V:1] dfdf ^gz/b/ | 
[V:2] [D,2D,,2][F2D2A,2][F2D2A,2] | 
[V:1] a!mordent!edefz/A/ | 
[V:2] !arpeggio![A2F2D2A,2]z2A,,3/F,/ & x4A,,2 | 
[V:1] dz/f/^g3b | 
[V:2] [D,2D,,2][F2D2A,2][F2D2A,2] | 
[V:1] a z/ ^c'/!mordent!d'c'd'e' | 
[V:2] [A2F2D2A,2]F,2D,,2 | 
[V:1] f'z/g'/_a'3_c' | 
[V:2] !arpeggio![_D,2_D,,2][K:clef=treble]!arpeggio![_c2F2_D2_A,2]!arpeggio![c2F2D2A,2][K:clef=bass] | 
[V:1] {/=b} d'c'_bgdz/c/ | 
[V:2] [C,2C,,2][K:clef=treble]!arpeggio![c2E2G,2]!arpeggio![B2E2C2][K:clef=bass] | 
[V:1] Fz/A/=B3d | 
[V:2] F,,2[D2^G,2F,2][D2G,2F,2] | 
[V:1] .c!mordent!GFGAz/C/ | 
[V:2] [C2A,2F,2][C2A,2F,2][CB,F,] z | 
[V:1] (3FAa[=b3=B3][d'd] | 
[V:2] F,,2[D2^G,2F,2][D2=G,2F,2] | 
[V:1] [c'c] !mordent!gfgaf | 
[V:2] [C2G,2E,2].[C2A,2_E,2][C2F,2E,2] | 
[V:1] (3bb'[a'a]!accent![^g'4^g4] | 
[V:2] [B,2F,2D,2][=B,2F,2D,2][B,2E,2D,2] | 
[V:1] (3aa'[g'g]!accent![^f'4^f4] | 
[V:2] [A,2E,2^C,2][A,2_E,2=C,2][A,2D,2C,2] | 
[V:1] {/g}g'2-g'/=f'/g'/f'/ e'/d'/e'/d'/ | 
[V:2] [G,2D,2B,,2][D2G,2D,2]B,,2 | 
[V:1] c'2-c'/b/c'/b/ a/g/a/g/ | 
[V:2] C,2[E2B,2G,2]C,2 | 
[V:1] f z c''/=b'/_b'/a'/ .f'' z | 
[V:2] F,,2[K:clef=treble][F2A,2][A2C2] | 
[V:1] a'2a'/^g'/=g'/f'/ c'' z | 
[V:2] z2[F2A,2][A2C2] & F,6 | 
[V:1] f'2f'/e'/d'/c'/ a' z | 
[V:2] z2[F2A,2][A2C2] & F,6 | 
[V:1] c'2c'/=b/_b/a/ f' z | 
[V:2] z2[F2A,2][A2C2] & F,6 | 
[V:1] .g2!accent!!trill!d'4 | 
[V:2] z2G2G2 & F,6 | 
[V:1] .g2!trill!d4 | 
[V:2] z2[G2D2=B,2][G2D2B,2] & F,6 | 
[V:1] .c2!accent!!trill!g'4 | 
[V:2] z2[G2E2_B,2][G2E2B,2] & F,6 | 
[V:1] .c'2!accent!!trill!c4 | 
[V:2] z2[G2E2B,2][G2E2B,2] & F,6 | 
[V:1] .f z c''/=b'/_b'/a'/ f'' z | 
[V:2] z2[F2A,2][A2C2] & F,6 | 
[V:1] a'2a'/^g'/=g'/f'/ c'' z | 
[V:2] z2[F2A,2][A2C2] & F,6 | 
[V:1] f'2f'/e'/d'/c'/ a' z | 
[V:2] z2[F2A,2][A2C2] & F,6 | 
[V:1] c'2c'/=b/_b/a/ f' z | 
[V:2] z2[F2A,2][A2C2] & F,6 | 
[V:1] g2!accent!!trill!d'4 | 
[V:2] z2[G2D2B,2][G2D2B,2] & F,6 | 
[V:1] .g2!accent!!trill!d4 | 
[V:2] z2[G2D2=B,2][G2D2B,2] & F,6 | 
[V:1] .c2!accent!!trill!g'4 | 
[V:2] z2[G2E2_B,2][G2E2B,2] & F,6 | 
[V:1] .c'2!accent!!trill!c4 | 
[V:2] z2[G2E2B,2][G2E2B,2] & F,6- | 
[V:1] f z (3ccc (3ced | 
[V:2] F zA4 & [F,2A,2]z2C2- | 
[V:1] (3cgc (3=BgB (3_BgB | 
[V:2] [B2E2][K:clef=bass]C4 & C2z2C,2 | 
[V:1] !accent![a2A2](3ccc (3ced | 
[V:2] F,2[K:clef=treble]A4 & F,,2z2C2- | 
[V:1] (3cgc (3=BgB (3_BgB | 
[V:2] [B2E2][K:clef=bass]C4 & C2z2C,2 | 
[V:1] .[a2A2](3AAA (3AcB | 
[V:2] F,2F4 & F,,2z2A,2- | 
[V:1] (3AeA (3^GeG (3=GeG | 
[V:2] G2A,4 & [^C2A,2]z2A,,2 | 
[V:1] !accent![f2F2](3AAA (3AcB | 
[V:2] D,2F4 & D,,2z2A,2 | 
[V:1] (3AeA (3^GeG (3=GeG | 
[V:2] G2A,4 & [^C2A,2]z2A,,2 | 
[V:1] [f2F2](3FFF (3FAG | 
[V:2] D,2D4 & D,,2z2F,2- | 
[V:1] (3FcF (3=EcE (3_EcE | 
[V:2] [_E2A,2]F,4 & F,2z2F,,2 | 
[V:1] !accent![d2D2](3FFF (3FAG | 
[V:2] B,,2D4 & B,,,2z2F,2- | 
[V:1] (3FcF (3=EcE (3_EcE | 
[V:2] [_E2A,2]F,4 & F,2z2F,,2 | 
[V:1] (3[dD]FB (3dfb (3d'f'f'' | 
[V:2] [B,,2B,,,2]!accent!D4 & x2z2F,2 | 
[V:1] (3d''=b'g'- (3[b'g']^g'e'- (3[g'e']f'd' | 
[V:2] =B,,2F4 & =B,,2^G,2F,2 | 
[V:1] (3c'=b_b (3agf (3edc- | 
[V:2] C,2F2x2 & C,2A,2C2- | 
[V:1] c2d2e2 & [B6G6E6] | 
[V:2] (3C=B,_B, (3A,G,F, (3E,D,C, | 
[V:1] .[f2A2F2](3ccc (3ced | 
[V:2] F,,2[K:clef=treble]A4 & F,,2z2C2- | 
[V:1] (3cgc (3=BgB (3_BgB | 
[V:2] B2[K:clef=bass]C4 & [E2C2]z2C,2 | 
[V:1] [a2A2](3ccc (3ced | 
[V:2] F,2[K:clef=treble]A4 & F,,2z2C2- | 
[V:1] (3cgc (3=BgB (3_BgB | 
[V:2] B2[K:clef=bass]C4 & [E2C2]z2C,2 | 
[V:1] [_a2_A2](3AAA (3AcB | 
[V:2] F,2[K:clef=treble]F4 & F,,2z2_A,2- | 
[V:1] (3_A_eA (3GeG (3_GeG | 
[V:2] _G2[K:clef=bass]_A,4 & [C2A,2]z2_A,,2 | 
[V:1] [f2F2](3_AAA (3AcB | 
[V:2] _D,2[K:clef=treble]F4 & _D,,2z2_A,2- | 
[V:1] (3_A_eA (3GeG (3_GeG | 
[V:2] _G2[K:clef=bass]_A,4 & [C2A,2]z2_A,,2 | 
[V:1] .[f2F2](3FFF (3F_A_G | 
[V:2] _D,2_D4 & _D,,2z2F,2- | 
[V:1] (3FcF (3=EcE (3_EcE | 
[V:2] _E2F,4 & [A,2F,2]z2F,,2 | 
[V:1] [_d2_D2](3FFF (3F_A_G | 
[V:2] B,,2_D4 & B,,,2z2F,2 | 
[V:1] (3FcF (3=EcE (3_EcE | 
[V:2] _E2F,4 & [A,2F,2]z2F,,2 | 
[V:1] (3[_d_D]zB, (3CD_E (3FG=A | 
[V:2] B,,2z2z2 & B,,,2x4 | 
[V:1] (3Bc_d (3efg (3=abc' | 
[V:2] [F6_D6-B,6-] & z2z2_A,2 | 
[V:1] (3_d'zc' (3b_a_g (3fe_d | 
[V:2] [D6B,6-_G,6-] | 
[V:1] (3cB_A (3_GF=E (3_DCB, | 
[V:2] [_E2B,2G,2]z2[_G,2_G,,2] | 
[V:1] [FA,] z (3f'g'^g' (3a'b'c'' | 
[V:2] [F,F,,] z[K:clef=treble] (3ab=b (3c'd'=e' | 
[V:1] a' z (3fg^g (3abc' | 
[V:2] f' z (3AB=B (3cd=e | 
[V:1] a z (3FG^G (3ABc | 
[V:2] f z[K:clef=bass] (3A,B,=B, (3CDE | 
[V:1] A x (3F,G,^G, (3A,_B,C | 
[V:2] F z (3A,,B,,=B,, (3C,D,E, | 
[V:1] A, zz2F,2 | 
[V:2] F, zz2[F,,2F,,,2] | 
[V:1] !trill!_G,4F,2 | 
[V:2] [_G,,4_G,,,4][F,,2F,,,2] | 
[V:1] !trill!_G,4F,2 | 
[V:2] [_G,,4_G,,,4][F,,2F,,,2] | 
[V:1] !trill!_G,4F,2 | 
[V:2] [_G,,4_G,,,4][F,,2F,,,2] | 
[V:1] {/F} dz/d/ (3d_ed cB | 
[V:2] !arpeggio!Dz/D/B,2F2 & !arpeggio![F,6B,,6] | 
[V:1] {/AB} Az/G/ (3ABc (3d_ef | 
[V:2] !arpeggio!_Ez/E/C2F2 & !arpeggio![F,6B,,6] | 
[V:1] gz/g/g2{/ga}g2 | 
[V:2] !arpeggio!_Ez/E/B,2B2 & !arpeggio![G,6B,,6] | 
[V:1] f4-f_e | 
[V:2] !arpeggio!Dz/D/B,2F2 & !arpeggio![F,6B,,6] | 
[V:1] !arpeggio!dz/d/ (3d_ed cB | 
[V:2] !arpeggio!Dz/D/B,2F2 & !arpeggio![F,6B,,6] | 
[V:1] {/AB} Az/G/ (3ABc (3d_ef | 
[V:2] _Ez/E/C2F2 & [F,6B,,6] | 
[V:1] a2>g2_ec | 
[V:2] !arpeggio!_Ez/E/C2F2 & !arpeggio![F,6B,,6] | 
[V:1] B2z2(3FBc | 
[V:2] !arpeggio!Dz/D/B,2F2 & !arpeggio![F,6B,,6] | 
[V:1] dz/d/ (3d_ed cB | 
[V:2] !arpeggio!Dz/D/B,2F2 & !arpeggio![F,6B,,6] | 
[V:1] {/AB} Az/G/ (3ABc (3d_ef | 
[V:2] !arpeggio!_Ez/E/C2F2 & !arpeggio![F,6B,,6] | 
[V:1] gz/g/g2{/ga}g2 | 
[V:2] !arpeggio!_Ez/E/B,2B2 & !arpeggio![G,6B,,6] | 
[V:1] f4-f_e | 
[V:2] !arpeggio!Dz/D/B,2F2 & !arpeggio![F,6B,,6] | 
[V:1] dz/d/ (3d_ed cB | 
[V:2] !arpeggio!Dz/D/B,2F2 & !arpeggio![F,6B,,6] | 
[V:1] {/AB} Az/G/ (3ABc (3d_ef | 
[V:2] !arpeggio!_Ez/E/C2F2 & !arpeggio![F,6B,,6] | 
[V:1] {/_gg} _g'z/_e'/ (3c'a_g (3_ecA | 
[V:2] !arpeggio!_Ez/E/=A,2_G2 & !arpeggio![_G,6B,,6] | 
[V:1] B4z c | 
[V:2] !arpeggio!Dz/D/B,2F2 & !arpeggio![F,6B,,6] | 
[V:1] dz/d/d2d2 | 
[V:2] !arpeggio!Fz/F/D2F2 & !arpeggio![C6_A,6] | 
[V:1] !trill!d2^cd_ez/f/ | 
[V:2] !arpeggio!Fz/F/D2F2 & !arpeggio![C6_A,6] | 
[V:1] gz/g/.g2.g2 | 
[V:2] !arpeggio!Fz/F/D2G2 & !arpeggio![=B,6G,6] | 
[V:1] g4c2 | 
[V:2] !arpeggio!Ez/E/C2c2 & !arpeggio![B,6G,6C,6] | 
[V:1] {/c_d=d} _ez/e/e2e2 | 
[V:2] !arpeggio!Az/A/_E2A2 & !arpeggio![_E6C6F,6] | 
[V:1] {/de}!trill!_e6{/de} | 
[V:2] !arpeggio!_BB_E2B2 & !arpeggio![_E6C6_G,6] | 
[V:1] _gz/g/.g2.g2 | 
[V:2] !arpeggio!_Bz/B/_E2B2 & !arpeggio![_E6C6_G,6] | 
[V:1] {/f} _e'z/c'/a.f.=e._e | 
[V:2] !arpeggio!A2x4 & !arpeggio![_E2C2F,2]z2z2 | 
[V:1] {/AB} !arpeggio!dz/d/ (3d_ed cB | 
[V:2] !arpeggio!Dz/D/B,2F2 & !arpeggio![F,6B,,6] | 
[V:1] {/AB} !arpeggio!Az/G/ (3ABc (3d_ef | 
[V:2] !arpeggio!_Ez/E/C2F2 & !arpeggio![F,6B,,6] | 
[V:1] gz/g/g2{/ga}g2 | 
[V:2] !arpeggio!_Ez/E/B,2E2 & !arpeggio![G,6B,,6] | 
[V:1] f4-f_e | 
[V:2] !arpeggio!Dz/D/B,2F2 & !arpeggio![F,6B,,6] | 
[V:1] dz/d/ (3d_ed cB | 
[V:2] !arpeggio!Dz/D/B,2F2 & !arpeggio![F,6B,,6] | 
[V:1] {/AB} Az/G/ (3ABc (3d_ef | 
[V:2] !arpeggio!_Ez/E/C2F2 & !arpeggio![F,6B,,6] | 
[V:1] {/_gg} _g'z/_e'/ (5:4:5c'ag_ec | 
[V:2] !arpeggio!_Ez/E/A,2_G2 & !arpeggio![_G,6B,,6] | 
[V:1] {/_c2c2} _a'z/f'/ (5:4:5d'_c'_afd | 
[V:2] !arpeggio!Fz/F/_C2_A2 & !arpeggio![_A,6B,,6] | 
[V:1] {/_dd} _b'z/g'/ (5:4:5e'_d'bge | 
[V:2] !arpeggio!=Ez/E/B,2G2 & !arpeggio![G,6B,,6] | 
[V:1] {/_ee} _e'z/c'/ (3af_e (3cAF | 
[V:2] !arpeggio!_Ez/E/x2_E2 & !arpeggio!_G,2F,4 | 
[V:1] (3dDF (3Bdf (3bd'd | 
[V:2] z2B,4 & B,,2x2[D2F,2] | 
[V:1] (3_d'b_g (3_dB_G (3d_Dd | 
[V:2] x2B,4 & B,,2z2[_D2_G,2] | 
[V:1] (3cC=E (3Bce (3bc'c | 
[V:2] x2B,4 & C,2z2[E2=G,2] | 
[V:1] (3af_e (3cAF (3CGF | 
[V:2] x2C4 & F,,2z2[_E2F,2] | 
[V:1] (3DFB (3dfb (3d'dd' | 
[V:2] x2B,4 & B,,2z2[D2F,2] | 
[V:1] (3_d'b_g (3_dB_G (3_DdD | 
[V:2] x2B,4 & B,,2z2[_D2_G,2] | 
[V:1] (3C=EB (3ceb (3c'cc' | 
[V:2] x2B,4 & C,2z2[E2=G,2] | 
[V:1] (3af_e (3cAF (3CGF | 
[V:2] F,,2C2_E2 | 
[V:1] (3DFB (3dfb (3d'f'f'' | 
[V:2] x2B,4 & B,,2z2[D2F,2] | 
[V:1] (3d''c''f' (3d'c'f (3dcF | 
[V:2] [FDC_A,] z[_A,,4_A,,,4] | 
[V:1] [f2d2=B2F2]z2z2 | 
[V:2] [G,,2G,,,2](3^A,,=B,,^C, (3D,^F,G, | 
[V:1] [f2d2G2F2][f'4d'4g4-f4] | 
[V:2] (3^A,=B,^C (3D_A,G, (3F,_E,D, | 
[V:1] .[_e'c'g_e] z (3c'_e'g' (3c'e'_e'' | 
[V:2] .[CC,] zz2z2[K:clef=treble] | 
[V:1] (3c''b'_e' (3c'b_e (3cB_E | 
[V:2] [B_EC_G,] z[K:clef=bass][_G,,4_G,,,4] | 
[V:1] [_e2c2A2_E2]z2z2 | 
[V:2] [F,,2F,,,2](3^G,,A,,B,, (3=B,,C,^C, | 
[V:1] [_e2c2A2F2_E2][_e'4c'4a4f4e4] | 
[V:2] (3D,_E,=E, (3F,^F,G, (3^G,A,=F, | 
[V:1] [d'bfd] z (3FBf (3=eBb | 
[V:2] x4[G2_D2] & B, zF,4 | 
[V:1] f z (3FBf (3eBb | 
[V:2] x4[G2_D2] & [F=DF,] zF,4 | 
[V:1] .f z (3FBd (3fb=e' | 
[V:2] [F=DF,] zF,2[K:clef=treble][_d2F2] | 
[V:1] .[f'f] z (3fbd' (3f'b'=e'' | 
[V:2] [=dF] zF,2[_d'2f2] | 
[V:1] [f''f'] z (3b'd''a' (3g'b'f' | 
[V:2] [=d'f] z d'f' bd' | 
[V:1] (3_e'g'd' (3c'e'b (3ac'g | 
[V:2] gb _eg ce | 
[V:1] (3fa_e (3dfc (3BdA | 
[V:2] Ac FA DF[K:clef=bass] | 
[V:1] (3GBF (3_EGD (3CEB, | 
[V:2] B,D G,B, _E,G, | 
[V:1] A, z[C2B,2][C2B,2] | 
[V:2] C,z/_E,/_G,3_A, | 
[V:1] [C2B,2][C2B,2][C2B,2] | 
[V:2] ._G,z/_G,,/F,,G,,_A,,G,, | 
[V:1] [C2A,2][C2B,2][C2B,2] | 
[V:2] F,,z/F,/_G,3_A, | 
[V:1] [C2B,2][C2B,2][C2B,2] | 
[V:2] _G,z/_G,,/F,,G,,_A,,G,, | 
[V:1] [C2A,2][C2B,2][C2B,2] | 
[V:2] F,,z/=A,,/C,3=E, | 
[V:1] [C2A,2][C2B,2][C2B,2] | 
[V:2] F,z/F,,/C,3E, | 
[V:1] [C2A,2][C2B,2][C2B,2] | 
[V:2] F,z/F,,/C,3E, | 
[V:1] [C2A,2][C2B,2][C2B,2] | 
[V:2] F,z/F,,/C,3E, | 
[V:1] [CA,]z/D/_E3B | 
[V:2] F,2[_E2B,2_G,2][E2B,2G,2] | 
[V:1] Az/d/_e3b | 
[V:2] [_E2C2F,2][E2B,2_G,2][E2B,2G,2] | 
[V:1] az/d'/_e'3_e'' | 
[V:2] [_E2C2F,2][E2B,2_G,2][E2B,2G,2] | 
[V:1] _e'2_e2^D2[K:clef=bass] & _e'a _eA ^DA, | 
[V:2] [_E2C2F,2]z2[F,2F,,2] | 
[V:1] .[E2^G,2]!accent![^F2=B,2A,2][F2B,2A,2] | 
[V:2] [E,E,,] z/[K:clef=treble] ^G/=B3^d | 
[V:1] [E2=B,2^G,2][^F2B,2A,2][F2B,2A,2] | 
[V:2] ez/^G/=B3^d | 
[V:1] [E2=B,2^G,2][^F2B,2A,2][F2B,2A,2] | 
[V:2] e[K:clef=bass] z/ E,,/=B,,3^D, | 
[V:1] [G2=B,2=G,2][^F2B,2A,2][F2B,2A,2] | 
[V:2] E, z/ E,,/=B,,3^D, | 
[V:1] [G=B,G,] z2<[K:clef=treble]e2^A & x2G^FGE | 
[V:2] E,z/G,/^A,3^C | 
[V:1] =B2^F2^G2 & ^D^CD=B,E=D | 
[V:2] =B,2.=B,,2.E,2 | 
[V:1] [AC] z2<a2^d & x2c=BcA | 
[V:2] {/A,,} A,z/C/^D3^F | 
[V:1] e2=B2^c2 & G^FGEAG | 
[V:2] .E2.E,2.A,2 | 
[V:1] d z2<d'2^g & F x fefd | 
[V:2] {/D,} Dz/F/[K:clef=treble]^G3=B | 
[V:1] a2e2^f2 & c=BcAdc | 
[V:2] A2A,2D2 | 
[V:1] [g_B] z2<g'2^c' & x2_babg | 
[V:2] {/G,} Gz/B/^c3e | 
[V:1] [e'_b]z/[d'/a/][^c'g][bf][ae][g^c] | 
[V:2] gz/f/ed^cA | 
[V:1] fz/g/a3=c' & d2-d^cd_e | 
[V:2] Dz/E/FEF^F | 
[V:1] bz/a/gf^g2 & d4ed | 
[V:2] Gz/A/ B z[K:clef=bass][B,,2B,,,2] | 
[V:1] [a^c] z2<D2E & x2=B,F,E,2 | 
[V:2] [A,,A,,,]z/^C,,/E,,3^G,, | 
[V:1] [^CA,] z2<d2e & x2=BFE2 | 
[V:2] A,,z/^C,/E,3^G, | 
[V:1] [^cA]z/e/d'3e' & x2=bfe2 | 
[V:2] A,z/^C/[K:clef=treble]E3^G | 
[V:1] [^c'a]z/e'/d''2x e'' & x2=b'f'e'2 | 
[V:2] Az/^c/e3^g | 
[V:1] [^c''a']z/e'/ [^c'a]e [^cA]E | 
[V:2] a zz2z2[K:clef=bass] | 
[V:1] [e2^c2][e2c2][e2c2] & z[A2E2][A2E2][AE]- | 
[V:2] [A,,2A,,,2]z2z2 | 
[V:1] [e2^c2][e2c2][e2c2] & [AE][A2E2][A2E2][AE]- | 
[V:2] [A,2A,,2]z2z2 | 
[V:1] [e2^c2][e2c2][e2c2] & [AE][A2E2][A2E2][AE]- | 
[V:2] [A,,2A,,,2]z2z2 | 
[V:1] [e2=c2][e2c2][e2c2] & [AE][A2E2][A2E2][AE]- | 
[V:2] A,,z/E,/A,3D | 
[V:1] [e2c2][e2c2][e2c2] & [AE][A2E2][A2E2][AE]- | 
[V:2] C=B,A,B,Cz/E,/ | 
[V:1] [e2c2][e2c2][e2c2] & [AE][A2E2][A2E2][AE] | 
[V:2] A,,z/E,/A,3D | 
[V:1] [e2c2][e2c2][e2c2] & [AE][A2E2][A2E2][AE]- | 
[V:2] C=B,A,B,C z | 
[V:1] [e2c2][e2c2][e2c2] & [AE][B2E2][B2E2][BE]- | 
[V:2] C,,z/C,/G,3D | 
[V:1] [e2c2][e2c2][e2c2] & [BE][B2E2][B2E2][BE]- | 
[V:2] C=B,_B,A,G,F, | 
[V:1] [e2c2][e2c2][e2c2] & [BE][B2E2][B2E2][BE]- | 
[V:2] E,D,C,=B,,_B,,A,, | 
[V:1] [e2c2][e2c2][e2c2] & [BE][B2E2][B2E2][BE] | 
[V:2] G,,F,,E,,D,,C,,2 | 
[V:1] [fAF]z/A/=B3d | 
[V:2] [F,,F,,,] z[D2^G,2F,2][D2G,2F,2] | 
[V:1] .c!mordent!GFGAz/C/ | 
[V:2] [C2A,2F,2][C2A,2F,2][CB,F,] z | 
[V:1] FAFA=Bz/d/ | 
[V:2] F,,2[C2A,2F,2][D2^G,2F,2] | 
[V:1] c!mordent!GFGAz/C/ | 
[V:2] [C2A,2F,2][C2A,2F,2][CB,F,] z | 
[V:1] Fz/A/=B3d | 
[V:2] F,,2[D2^G,2F,2][D2_A,2F,2] | 
[V:1] !mordent!c=BABc.A & _E2x4 | 
[V:2] =A,z/=B,/[E2C2F,2][E2C2F,2] & F,2x4 | 
[V:1] {/A} ez/A/!mordent!=B2^GE | 
[V:2] [=EC=E,] z[E2D2E,2][EDE,] z | 
[V:1] A/c z/!mordent!_B2GE | 
[V:2] !arpeggio![CE,A,,] z[C2B,2C,2][C2B,2C,2] | 
[V:1] (3FAa[=b3=B3][d'd] | 
[V:2] !arpeggio![A,2C,2F,,2][D2^G,2F,2][D2G,2F,2] | 
[V:1] [c'c]!mordent!gfgaz/c/ | 
[V:2] [C2A,2F,2][C2A,2F,2][CB,F,] z | 
[V:1] (3faa'[=b'3=b3][d''d'] | 
[V:2] !arpeggio![A,2C,2F,,2][D2^G,2F,2][D2G,2F,2] | 
[V:1] [c''c']!mordent!g'f'g'a'z/c'/ | 
[V:2] [C2A,2F,2][C2A,2F,2][C2B,2F,2] | 
[V:1] (3f'a'af3e | 
[V:2] !arpeggio![A,2C,2F,,2][C2A,2F,2][^C2A,2F,2] | 
[V:1] !mordent!d^cdefg | 
[V:2] !arpeggio![D2F,2B,,2][D2B,2F,2][D2B,2F,2] | 
[V:1] !accent!a2(3gfd (3cBG | 
[V:2] !arpeggio![F2A,2C,2][F2A,2][E2C2B,2] | 
[V:1] F2z2A2 | 
[V:2] x2[F2C2A,2]z2 & F,4x2 | 
[V:1] dz/f/^g3b | 
[V:2] [D,2D,,2][F2D2A,2][F2D2A,2] | 
[V:1] .a!mordent!edefz/A/ | 
[V:2] [AFDA,] zz2A,,3/F,/ & x4A,,2 | 
[V:1] dfdf^gz/b/ | 
[V:2] [D,2D,,2][F2D2A,2][F2D2A,2] | 
[V:1] a!mordent!edefz/A/ | 
[V:2] [AFDA,] zz2A,,3/F,/ & x4A,,2 | 
[V:1] dz/f/^g3b | 
[V:2] [D,2D,,2][F2D2A,2][F2D2A,2] | 
[V:1] az/^c'/!mordent!d'c'd'e' | 
[V:2] [A2F2D2A,2]F,2D,,2 | 
[V:1] f'z/g'/_a'3=b | 
[V:2] [_D,2_D,,2][K:clef=treble]!arpeggio![_c2F2_D2_A,2]!arpeggio![c2F2D2A,2][K:clef=bass] | 
[V:1] {/=b} d'c'_bgdz/c/ | 
[V:2] [C,2C,,2][K:clef=treble]!arpeggio![c2E2G,2]!arpeggio![B2E2C2][K:clef=bass] | 
[V:1] Fz/A/=B3d | 
[V:2] F,,2[D2^G,2F,2][D2G,2F,2] | 
[V:1] .c!mordent!GFGAz/C/ | 
[V:2] [C2A,2F,2][C2A,2F,2][CB,F,] z | 
[V:1] (3FAa[=b3=B3][d'd] | 
[V:2] F,,2[D2^G,2F,2][D2G,2F,2] | 
[V:1] [c'c]!mordent!gfgaf | 
[V:2] [C2G,2E,2][C2A,2_E,2][C2F,2E,2] | 
[V:1] (3bb'[a'a][^g'4^g4] | 
[V:2] [B,2F,2D,2][=B,2F,2D,2][B,2E,2D,2] | 
[V:1] (3aa'g'[^f'4^f4] | 
[V:2] [A,2E,2^C,2][A,2_E,2=C,2][A,2D,2C,2] | 
[V:1] {/g}g'2-g'/=f'/g'/f'/ e'/d'/e'/d'/ | 
[V:2] [G,2D,2B,,2][D2G,2D,2]B,,2 | 
[V:1] c'2-c'/=b/b/_b/ b/a/a/g/ | 
[V:2] C,2[E2B,2G,2]C,2 | 
[V:1] f z c''/=b'/_b'/a'/ f'' z | 
[V:2] F,,2[K:clef=treble][F2A,2][A2C2] | 
[V:1] a'2a'/^g'/=g'/f'/ c'' z | 
[V:2] z2[F2A,2][A2C2] & F,6 | 
[V:1] f'2f'/e'/d'/c'/ a' z | 
[V:2] z2[F2A,2][A2C2] & F,6 | 
[V:1] c'2c'/=b/_b/a/ f' z | 
[V:2] z2[F2A,2][A2C2] & F,6 | 
[V:1] g2!trill!d'4 | 
[V:2] z2[G2D2=B,2][G2D2B,2] & F,6 | 
[V:1] g2!trill!d4 | 
[V:2] z2[G2D2=B,2][G2D2B,2] & F,6 | 
[V:1] c2!trill!g'4 | 
[V:2] z2[G2E2B,2][G2E2B,2] & F,6 | 
[V:1] c'2!trill!c4 | 
[V:2] z2[G2E2B,2][G2E2B,2][K:clef=bass] & F,6 | 
[V:1] f'2c''/=b'/_b'/a'/ f'' z | 
[V:2] z2[F2A,2][A2C2] & F,4x2 | 
[V:1] a'2a'/^g'/=g'/f'/ c'' z | 
[V:2] z2[F2A,2][A2C2] & F,4x2 | 
[V:1] f'2f'/e'/^d'/=d'/ a' z | 
[V:2] x2F2[A2D2] & z2A,4 | 
[V:1] d'2d'/^c'/=c'/=b/ f' z | 
[V:2] x4[A2D2] & z2=B,4 | 
[V:1] e'2!trill!=b'4 | 
[V:2] z2[^G2D2=B,2][G2D2B,2] & E,6 | 
[V:1] e'2!trill!=b4 | 
[V:2] z2[^G2D2=B,2][G2D2B,2] & E,6 | 
[V:1] e2!trill!=b4 | 
[V:2] z2[^G2D2=B,2][G2D2B,2] & E,6 | 
[V:1] e2!trill!d4 | 
[V:2] z2[^G2D2=B,2][G2D2B,2] & E,6 | 
[V:1] [c2A2][c'2a2][e2c2] | 
[V:2] A,2E/^D/=D/C/ A z | 
[V:1] z2[a2e2][c2A2] | 
[V:2] A,,2C/=B,/_B,/A,/ E z | 
[V:1] z2[e2c2][A2E2] | 
[V:2] A,,2A,/G,/F,/E,/ C z | 
[V:1] z2[c2A2][E2C2] | 
[V:2] A,,,2E,/^D,/=D,/C,/ A, z | 
[V:1] z2!accent!e4 & x2[A2^F2][A2F2] | 
[V:2] =B,,,2!trill!C4 | 
[V:1] ^d2!accent!e4 & [A2^F2][A2F2][A2F2] | 
[V:2] =B,2!trill!C,4 | 
[V:1] ^f2!accent!e4 & [A2^F2][A2F2][A2F2] | 
[V:2] =B,,2!trill!C4 | 
[V:1] ^d2!accent!=b4 & [A2F2][d2A2][d2A2] | 
[V:2] =B,2!trill!=B,,4 | 
[V:1] [g2e2G2][g'2e'2][=b2g2] | 
[V:2] E,,2[K:clef=treble]=B/^A/=A/G/ e z[K:clef=bass] | 
[V:1] z2[e'2=b2][g2e2] | 
[V:2] E,2[K:clef=treble]G/^F/=F/E/ =B z[K:clef=bass] | 
[V:1] z2[=b2g2][e2=B2] | 
[V:2] E,2E/D/C/=B,/ G z | 
[V:1] z2[g2e2][=B2G2] | 
[V:2] E,,2=B,/^A,/=A,/G,/ E z | 
[V:1] z2!trill![^f4^A4] | 
[V:2] ^F,,2[E2^C2^F,2][E2-C2-F,2] | 
[V:1] [^c'2e2]!trill![^f4^A4] | 
[V:2] [E2C2G,2][E2^C2^F,2][E2C2F,2] | 
[V:1] [^d2=A2]!trill![=b4d4] | 
[V:2] =B,,2[A2^F2=B,2][A2F2B,2] | 
[V:1] [^f'2a2]!trill![=b4^d4] | 
[V:2] [A2^F2C2][A2F2=B,2][A2F2B,2] | 
[V:1] [^g2=d2][e'4^g4] | 
[V:2] E,2[K:clef=treble][d2=B2E2][d2-B2-E2] | 
[V:1] [b'2d'2]!trill![e'4^g4] | 
[V:2] [d2=B2=F2][d2=B2E2][d2B2E2][K:clef=bass] | 
[V:1] [^c'2=g2]!trill![a'4c'4] | 
[V:2] A,2[K:clef=treble][g2e2A2][g2-e2-A2] | 
[V:1] [e''2g'2]!trill![g'4^c'4] | 
[V:2] [g2e2_B2][g2e2A2][g2e2A2] | 
[V:1] .[f'2d'2]{/f'}[f''2d''2]-(3[f''d''][e''^c''][_e''=c''] | 
[V:2] _B,2[f2d2F2][f2d2F2] | 
[V:1] (3[d''=b'][_d''_b'][c''a'] (3[=b'^g'][_b'=g'][a'^f'] (3[_a'^f'][g'e'][_g'_e'] | 
[V:2] [f2d2B2][f2d2B2][f2d2B2] | 
[V:1] [f'2d'2]{/f'}[f''2d''2]-(3[f''d''][e''^c''][_e''=c''] | 
[V:2] B,2[f2d2F2][f2d2F2] | 
[V:1] (3[d''=b'][_d''=b'][c''a'] (3[=b'^g'][_b'=g'][a'^f'] (3[_a'=f'][g'e'][_g'_e'] | 
[V:2] [f2d2A2][f2d2F2][f2d2F2] | 
[V:1] .[f'2d'2][f''2d''2]-(3[f''d'']^g'=b' | 
[V:2] ^G,2[f2d2=B2F2][f2d2B2F2] | 
[V:1] (3=g'[d''=b']^g' (3e'[b'g']f' (3^c'[^g'^e']d' | 
[V:2] [f2d2=B2F2]z2z2 | 
[V:1] (3^a[f'd']=b (3g[d'b]^g (3e[bg]f | 
[V:2] x2[=B2^G2F2]z2[K:clef=bass] & D4x2 | 
[V:1] (3^c[^g^e]d (3^A[fd]^B (3=G[=B^G][eE] | 
[V:2] E,2[E2D2]z2 | 
[V:1] [c2A2](3eee (3egf | 
[V:2] x2[K:clef=treble]c4 & A,,2z2E2- | 
[V:1] (3e=be (3^dbd (3=dbd | 
[V:2] x2E4- & [d2^G2E2]z2E,2 | 
[V:1] [c'2c2](3eee (3egf | 
[V:2] x2[K:clef=treble]c4 & [E2A,2]z2E2- | 
[V:1] (3e=be (3^dbd (3=dbd | 
[V:2] x2E4- & [d2^G2E2]z2E,2 | 
[V:1] [c'2c2](3ccc (3ced | 
[V:2] x2[K:clef=treble]A4 & [E2A,2]z2C2- | 
[V:1] (3cgc (3=BgB (3_BgB | 
[V:2] x2[K:clef=bass]C4- & [B2E2C2]z2C,2 | 
[V:1] [a2A2](3ccc (3ced | 
[V:2] x2[K:clef=treble]A4 & [C2F,2]z2C2- | 
[V:1] (3cgc (3=BgB (3_BgB | 
[V:2] x2[K:clef=bass]C4- & [B2E2C2]z2C,2 | 
[V:1] [a2A2](3AAA (3AcB | 
[V:2] x2[K:clef=treble]F4 & [C2F,2]z2A,2- | 
[V:1] (3AeA (3^GeG (3=GeG | 
[V:2] x2[K:clef=bass]A,4- & [G2^C2A,2]z2A,,2 | 
[V:1] [f2F2](3AAA (3AcB | 
[V:2] x2[K:clef=treble]F4 & [A,2D,2]z2A,2- | 
[V:1] (3AeA (3^GeG (3=GeG | 
[V:2] x2[K:clef=bass]A,4 & [G2^C2A,2]z2A,,2 | 
[V:1] [fF]z/^G/ (3A=B^c (3def | 
[V:2] [D,2D,,2][F4D4A,4F,4] | 
[V:1] (3^ga=b (3c'd'e' (3^f'^g'a' | 
[V:2] [E6C6A,6E,6] | 
[V:1] (3:2:10=b'c''z/b'/ a'g'f' e'd'c' | 
[V:2] [D6A,6F,6]- | 
[V:1] (3=bag (3fed (3c=BA | 
[V:2] D4^D2 & [A,6F,6] | 
[V:1] ^G z (3e'^f'g' (3^g'a'=b' | 
[V:2] [E=B,E,] z[K:clef=treble] (3^ga_b (3=b^c'^d' | 
[V:1] ^g' z (3e^f=g (3^ga=b | 
[V:2] e' z (3^GA_B (3=B^c^d | 
[V:1] ^g z (3E^F=G (3^GA=B | 
[V:2] e z[K:clef=bass] (3^G,A,_B, (3=B,^C^D | 
[V:1] ^G z (3E,^F,=G, (3^G,A,=B, | 
[V:2] E z (3^G,,A,,_B,, (3=B,,^C,^D, | 
[V:1] ^G, zz2E,2 | 
[V:2] E, zz2E,,2 | 
[V:1] !trill!F,4E,2 | 
[V:2] F,,4E,,2 | 
[V:1] !trill!F,4E,2 | 
[V:2] F,,4E,,2 | 
[V:1] !trill!F,4G,2 | 
[V:2] F,,4G,,2 | 
[V:1] ez/e/ (3efe dc | 
[V:2] [C,C,,] z/ E/G,2E2 | 
[V:1] !mordent!=Bz/A/ (3Bcd (3efg | 
[V:2] !arpeggio!Fz/F/D2G2 & !arpeggio![G,6C,6] | 
[V:1] az/a/a2{/a=b}a2 | 
[V:2] !arpeggio!Fz/F/C2c2 & !arpeggio![A,6C,6] | 
[V:1] g4-gf | 
[V:2] !arpeggio!Ez/E/C2G2 & !arpeggio![G,6C,6] | 
[V:1] ez/e/ (3efe dz/c/ | 
[V:2] !arpeggio!Ez/E/C2G2 & !arpeggio![G,6C,6] | 
[V:1] =Bz/A/ (3Bcd (3efg | 
[V:2] !arpeggio!Fz/F/D2G2 & !arpeggio![G,6C,6] | 
[V:1] =b2>x2 (3afd | 
[V:2] !arpeggio!Fz/F/D2G2 & !arpeggio![G,6C,6] | 
[V:1] c2z2(3Gcd | 
[V:2] !arpeggio!Ez/E/C2G2 & !arpeggio![G,6C,6] | 
[V:1] ez/e/ (3efe dc | 
[V:2] !arpeggio!Ez/E/C2G2 & !arpeggio![G,6C,6] | 
[V:1] =Bz/B/ (3Bcd (3efg | 
[V:2] !arpeggio!Fz/F/D2G2 & !arpeggio![G,6C,6] | 
[V:1] az/a/a2{/a=b}a2 | 
[V:2] !arpeggio!Fz/F/C2c2 & !arpeggio![A,6C,6] | 
[V:1] g4-gf | 
[V:2] !arpeggio!Ez/E/C2G2 & !arpeggio![G,6C,6] | 
[V:1] ez/e/ (3efe dc | 
[V:2] !arpeggio!Ez/E/C2G2 & !arpeggio![G,6C,6] | 
[V:1] =Bz/A/ (3Bcd (3efg | 
[V:2] !arpeggio!Fz/F/D2G2 & !arpeggio![G,6C,6] | 
[V:1] {/_aa} _a'>f' (5:4:5d'=bafd | 
[V:2] !arpeggio!Fz/F/=B,2_A2 & !arpeggio![_A,6C,6] | 
[V:1] c4z d | 
[V:2] !arpeggio!Ez/E/C2G2 & !arpeggio![G,6C,6] | 
[V:1] ez/e/e2e2 | 
[V:2] !arpeggio!Gz/G/E2G2 & !arpeggio![D6B,6] | 
[V:1] !trill!e2^defg | 
[V:2] !arpeggio!Gz/G/E2G2 & !arpeggio![D6B,6] | 
[V:1] az/a/a2a2 | 
[V:2] !arpeggio!Gz/G/E2A2 & !arpeggio![^C6A,6] | 
[V:1] a4d2 | 
[V:2] !arpeggio!^Fz/F/D2d2 & !arpeggio![C6A,6D,6] | 
[V:1] {/d_e=e} fz/f/f2f2 | 
[V:2] =Bz/B/F2B2 & [F6D6G,6] | 
[V:1] !trill!f6{/ef} | 
[V:2] !arpeggio!cz/c/F2c2 & !arpeggio![F6D6_A,6] | 
[V:1] _az/a/a2a2 | 
[V:2] !arpeggio!cz/c/F2c2 & !arpeggio![F6D6_A,6] | 
[V:1] {/g} f'z/d'/ =bg^f=f | 
[V:2] !arpeggio![=B2F2D2G,2]z2z2 | 
[V:1] ez/e/ (3efe dc | 
[V:2] !arpeggio!Ez/E/C2G2 & !arpeggio![G,6C,6] | 
[V:1] !trill!=Bz/^A/ (3Bcd (3efg | 
[V:2] !arpeggio!Fz/F/D2G2 & !arpeggio![G,6C,6] | 
[V:1] =az/a/a2{/a=b}a2 | 
[V:2] !arpeggio!Fz/F/C2c2 & !arpeggio![A,6C,6] | 
[V:1] g4-gf | 
[V:2] !arpeggio!Ez/E/C2G2 & !arpeggio![G,6C,6] | 
[V:1] ez/e/ (3efe dc | 
[V:2] !arpeggio!Ez/E/C2G2 & !arpeggio![G,6C,6] | 
[V:1] !trill!=Bz/^A/ (3Bcd (3efg | 
[V:2] !arpeggio!Fz/F/D2G2 & !arpeggio![G,6C,6] | 
[V:1] _az/a/!trill!a2gf | 
[V:2] !arpeggio!Fz/F/=B,2_A2 & !arpeggio![_A,6C,6] | 
[V:1] ez/^d/ (3ef^f (3g^ga | 
[V:2] !arpeggio!Ez/E/_B,2G2 & !arpeggio![_B,6G,6C,6] | 
[V:1] _bz/b/!trill!b2ag | 
[V:2] !arpeggio!Ez/E/B,2G2 & !arpeggio![B,6G,6C,6] | 
[V:1] ^fz/^e/ (3fg_a (3=a_b=b | 
[V:2] !arpeggio!^Dz/D/C2^F2 & !arpeggio![A,6C,6] | 
[V:1] c'z/c'/!trill!c'2=ba | 
[V:2] !arpeggio!^Dz/D/A,2=D2 & !arpeggio![F,6C,6] | 
[V:1] (3g=bd' (3f'a'g' (3f'e'd' | 
[V:2] !arpeggio!Dz/D/G,2=B,2 & !arpeggio![F,6C,6] | 
[V:1] (3c'zE (3Gce (3gc'e' | 
[V:2] x2G,4 & [C2E,2C,2]z2[C2E,2] | 
[V:1] (3_e'c'_a (3_ec_A (3e_Ee | 
[V:2] z2_A,4 & [C,2C,,2]z2[C2_E,2] | 
[V:1] (3dD^F (3cd^f (3c'd'd | 
[V:2] z2!accent!=A,4 & [D,2D,,2]z2[C2D,2] | 
[V:1] (3=bgf (3d=BG (3DAG | 
[V:2] z2G,4 & [G,,2G,,,2]z2[=B,2D,2] | 
[V:1] (3EGc (3egc' (3e'ee' | 
[V:2] z2G,4 & [C,2C,,2]z2[C2E,2] | 
[V:1] (3_e'c'_a (3_ec_A (3_EeE | 
[V:2] z2_A,4 & [C,2C,,2]z2[C2_E,2] | 
[V:1] (3D^Fc (3d^fc' (3d'dd' | 
[V:2] z2=A,4 & [D,2D,,2]z2[C2D,2] | 
[V:1] (3=bgf (3d=BG (3DAG | 
[V:2] z2G,4 & G,,2z2[=B,2D,2] | 
[V:1] (3EGc (3egc' (3e'g'e'' | 
[V:2] z2G,4 & [C,2C,,2]z2[C2E,2] | 
[V:1] (3d''g'e' (3d'ge (3dG-E- | 
[V:2] z2G,4 & [_B,,2_B,,,2]z2[D2E,2] | 
[V:1] [e2^c2G2E2]z2z2 | 
[V:2] [A,,2A,,,2](3^C,,^D,,E,, (3^G,,A,,=C, | 
[V:1] z2[e4^c4] & [A4G4][A2G2] | 
[V:2] (3^C,^D,E, (3^G,A,=C (3^C^DE | 
[V:1] (3[fdAF]Ad (3fad' (3f'a'f'' | 
[V:2] z2D4 & D,2z2[F2A,2] | 
[V:1] (3d''c''f' (3d'c'f (3dcF | 
[V:2] z2D4 & _A,,2z2[F2_A,2] | 
[V:1] [f2d2=B2F2]z2z2 | 
[V:2] [G,,2G,,,2](3B,,,=B,,,C,, (3^C,,D,,^F,, | 
[V:1] z2[f2d2]z2 & [G4F4][G2F2] | 
[V:2] (3G,,B,,=B,, (3C,^C,D, (3^F,G,=B, | 
[V:1] _e4-(3efe & _E2(3_ABAG2 | 
[V:2] C4[_D2B,2] & z2_E,4 | 
[V:1] c2-(3c_dc (3Bf_e & (3_AGF_E2G2 | 
[V:2] x2!accent!_E4 & [C2_A,2]z2[_D2B,2_E,2] | 
[V:1] c2-(3c_dc (3Bf_e & (3_AGF_E2G2 | 
[V:2] x2!accent!_E4 & [C2_A,2]z2[_D2_B,2_E,2] | 
[V:1] (3c_d=d (3_e_f^f (3[=bg][c'=a][d'b] & _A2c'2x2 | 
[V:2] x2D4 & [C2_A,2]z2[F2G,2] | 
[V:1] [_e'2c'2](3_edc (3=B_ag | 
[V:2] x2G4 & [_E2C2]z2[F2D2G,2] | 
[V:1] _e2-(3efe (3d_ag & (3cB_AG2=B2 | 
[V:2] x2G4[K:clef=treble] & _E2z2[F2D2G,2] | 
[V:1] _e2-(3efe (3d_ag & (3cB_AG2=B2 | 
[V:2] x2G4 & [_E2C2]z2[F2D2G,2] | 
[V:1] (3_ef^f_e'2d'2 & c2(3g_ag (3^fa^f' | 
[V:2] [_E2C2]-[c2-E2C2][c2A2D2] | 
[V:1] g'2(3g'b'f' (3_e'g'd' & g2x4 | 
[V:2] [B2G2]bd' gb | 
[V:1] (3c'_e'b (3ac'g (3fa_e | 
[V:2] _eg ce Ac | 
[V:1] (3dfc (3_BdA (3GBF | 
[V:2] FA DF B,D[K:clef=bass] | 
[V:1] (3_EGD (3CEB, (3A,CG, | 
[V:2] G,B, _E,G, C,E, | 
[V:1] ^F,2[C2G,2][C2G,2] | 
[V:2] A,,z/D,/_E,3=F, | 
[V:1] [C2G,2][C2G,2][C2G,2] | 
[V:2] _E,z/_E,,/ D,,E,,F,,E,, | 
[V:1] [C2^F,2][C2F,2][C2F,2] | 
[V:2] D,,z/^C,/D,3_E, | 
[V:1] [C2^F,2][C2F,2][C2F,2] | 
[V:2] D,^C,D,A,,D,-D,, | 
[V:1] [=B,=F,] x (3f'_a'_e' (3d'f'c' | 
[V:2] [D,G,,G,,,] z[K:clef=treble] _a_c' fa | 
[V:1] (3=bd'_a (3g=b^f (3=fa_e | 
[V:2] df =Bd _A_c | 
[V:1] (3dfc (3=Bd_A (3G=B^F | 
[V:2] F_A DF =B,D[K:clef=bass] | 
[V:1] (3=F_A_E (3DFC (3=B,D_A, | 
[V:2] _A,_C F,A, D,F, | 
[V:1] [F2D2G,2][F2C2G,2][F2_B,2G,2] | 
[V:2] =B,,z/B,,/C,2_D,_E,/D,/ | 
[V:1] [=E2B,2G,2][e2B2G2][e2B2G2] | 
[V:2] C,z/C/_D3_E/D/ | 
[V:1] [e2B2G2][e'2b2g2][f'2b2f2] | 
[V:2] C[K:clef=treble]z/c/_d3_e/d/ | 
[V:1] !arpeggio![g'2b2e2][c'2b2e2][c'2b2g2] | 
[V:2] cz/=B/ _BGEC | 
[V:1] {/f} _a'z/g'/!mordent!f'3_e' | 
[V:2] _Az/A/F2A2 & [C6F,6] | 
[V:1] !mordent!_d'z/c'/ !mordent!bz/_a/ !mordent!gz/f/ | 
[V:2] _Az/A/F2A2 & [_D6B,6] | 
[V:1] {/_e} g'z/f'/!mordent!_e'3_d' | 
[V:2] Gz/G/_E2G2 & [B,6_E,6] | 
[V:1] !mordent!c'z/b/ !mordent!_az/g/ !mordent!fz/_e/ | 
[V:2] Gz/G/_E2G2[K:clef=bass] & [C6_A,6] | 
[V:1] {/_d} f'z/_e'/!mordent!_d'3c' | 
[V:2] !arpeggio!Fz/F/_D2F2 & !arpeggio![_A,6_D,6] | 
[V:1] !mordent!b>_a !mordent!g>f =e3/f/ | 
[V:2] !arpeggio!Fz/F/_D2F2 & !arpeggio![B,6G,6] | 
[V:1] g>g.g2-.g2 | 
[V:2] !arpeggio!Fz/F/B,2F2 & !arpeggio![B,6G,6_D,6] | 
[V:1] !accent!g2-g_a/_b/ ag | 
[V:2] !arpeggio!Ez/E/B,2E2 & !arpeggio![B,6G,6C,6] | 
[V:1] _az/a/-x2[a2f2] & fx/f/[c2_A2]x2 | 
[V:2] [F2_A,2F,2][K:clef=treble][_A_A,][GG,][FF,][_E_E,] | 
[V:1] [_af]z/[a/f/][_d2A2][a2f2] | 
[V:2] [_D_D,][CC,][B,B,,][_A,_A,,][G,G,,][F,F,,] | 
[V:1] [bf]z/[b/f/][_d2B2][b2f2] | 
[V:2] [G,2G,,2][BB,][_A_A,][GG,][FF,] | 
[V:1] [bg]z/[b/g/][_e2B2][b2g2] | 
[V:2] [_E_E,][_D_D,][CC,][B,B,,][_A,_A,,][G,G,,] | 
[V:1] [c'g]z/[c'/g/][=e2c2][c'2g2] | 
[V:2] [_A,2_A,,2]cB_AG | 
[V:1] [c'_a]z/[c'/a/][f2c2][c'2a2] | 
[V:2] F_E_DCB,_A,[K:clef=bass] | 
[V:1] [f'c']z/[f'/c'/][_a2f2][f'2c'2] | 
[V:2] [_D4_D,4]z2 | 
[V:1] [f'=b]z/[f'/b/][_a2f2][f'2=b2f2] | 
[V:2] !trill!_D,,6 | 
[V:1] [e'c'e] z2<F2G & x2D_A,G,2 | 
[V:2] C,, z2<G,,2=B,, | 
[V:1] [EC] z2<f2g & x2d_AG2 | 
[V:2] C, z/ ^F,/G,3=B, | 
[V:1] [ec] z2<f'2g' & x2d'_ag2 | 
[V:2] C[K:clef=treble] z/ ^F/G3=B | 
[V:1] [e'c'] z2<f''2[f''d''] & x2d''_a'g'2 | 
[V:2] cz/^f/g3=b | 
[V:1] [e''c''][g'e'][e'c'][ge] [ec][GE] | 
[V:2] c'2z2z2[K:clef=bass] | 
[V:1] [G2E2][G2E2][G2E2] & z[C2G,2][C2G,2][CG,]- | 
[V:2] C,2z2z2 | 
[V:1] [G2E2][G2E2][G2E2] & [CG,][C2G,2][C2G,2][CG,]- | 
[V:2] C,,2z2z2 | 
[V:1] [G2E2][G2E2][G2E2] & [CG,][C2G,2][C2G,2][CG,]- | 
[V:2] C,2z2z2 | 
[V:1] [G2E2][G2E2][G2E2] & [CG,][C2G,2][C2G,2][CG,]- | 
[V:2] C,, z2<C,2F, | 
[V:1] [G2E2][G2E2][G2E2] & [CG,][C2G,2][C2G,2][CG,]- | 
[V:2] E,D,C,D,E,z/G,,/ | 
[V:1] [G2E2][G2E2][G2E2] & [CG,][C2G,2][C2G,2][CG,]- | 
[V:2] C,,z/G,,/C,3F, | 
[V:1] [G2E2][G2E2][G2E2] & [CG,][C2G,2][C2G,2][CG,]- | 
[V:2] E,D,C,D, E, z | 
[V:1] [G2E2][G2E2][G2E2] & [CG,][C2G,2][C2G,2][CG,]- | 
[V:2] C,,2z2z2 | 
[V:1] [G2E2][G2E2][G2E2] & [CG,][C2G,2][C2G,2][CG,]- | 
[V:2] C,2z2z2 | 
[V:1] [G2E2][G2E2][G2E2] & [CG,][C2G,2][C2G,2][CG,]- | 
[V:2] C,,2z2z2 | 
[V:1] [G2E2][G2E2][G2E2] & [CG,][C2G,2][C2G,2][C-G,] | 
[V:2] _B,2z2z2 | 
[V:1] [AF] z/ A/=B3d & [CA,] xx4 | 
[V:2] [F,,F,,,] z[D2^G,2F,2][D2G,2F,2] | 
[V:1] c!mordent!GFGAz/C/ | 
[V:2] [C2A,2F,2][C2A,2F,2][CB,F,] z | 
[V:1] FAFA=Bz/d/ | 
[V:2] F,,2[C2A,2F,2][D2^G,2F,2] | 
[V:1] c!mordent!GFGAz/C/ | 
[V:2] [C2A,2F,2][C2A,2F,2][CB,F,] z | 
[V:1] Fz/A/=B3d | 
[V:2] F,,2[D2^G,2F,2][D2_A,2F,2] | 
[V:1] !mordent!cz/=B/ABc3/A/ & _E2x4 | 
[V:2] A,>=B,[E2C2F,2][E2A,2F,2] & F,2x4 | 
[V:1] {/A} ez/A/!mordent!=B2^GE | 
[V:2] !arpeggio![=ECE,] z[E2D2E,2][EDB,E,] z | 
[V:1] A/c z/!mordent!_B2GE | 
[V:2] !arpeggio![CE,A,,] z[C2_B,2C,2][C2B,2C,2] | 
[V:1] (3FAa[=b3=B3][d'd] | 
[V:2] !arpeggio![A,2C,2F,,2][D2^G,2F,2][D2G,2F,2] | 
[V:1] .[c'c] !mordent!gfgaz/c/ | 
[V:2] [C2A,2F,2][C2A,2F,2][CB,F,] z | 
[V:1] (3faa'[=b'3=b3][d''d'] | 
[V:2] !arpeggio![A,2C,2F,,2][D2^G,2F,2][D2G,2F,2] | 
[V:1] [c''c'] !mordent!g'f'g'a'z/c'/ | 
[V:2] [C2A,2F,2][C2A,2F,2][CB,F,] z | 
[V:1] (3f'a'a!accent!f3e | 
[V:2] !arpeggio![A,2C,2F,,2][C2A,2F,2][^C2A,2F,2] | 
[V:1] !mordent!d^cdefg | 
[V:2] !arpeggio![D2F,2B,,2][D2B,2F,2][D2B,2F,2] | 
[V:1] !accent!a2(3gfd (3cBG | 
[V:2] [F2A,2C,2][F2C2A,2][E2C2B,2] | 
[V:1] F2z2A2 | 
[V:2] x2[F2A,2]z2 & F,4x2 | 
[V:1] dz/f/^g3_b | 
[V:2] [D,2D,,2][F2D2A,2][F2D2A,2] | 
[V:1] a!mordent!edefz/A/ | 
[V:2] !arpeggio![A2F2D2A,2]z2A,,3/F,/ | 
[V:1] dfdf^gz/b/ | 
[V:2] [D,2D,,2][F2D2A,2][F2D2A,2] | 
[V:1] a!mordent!edefz/A/ | 
[V:2] !arpeggio![A2F2D2A,2]z2A,,3/F,/ & x4A,,2 | 
[V:1] dz/f/^g3_b | 
[V:2] [D,2D,,2][F2D2A,2][F2D2A,2] | 
[V:1] az/^c'/!mordent!d'c'd'e' | 
[V:2] !arpeggio![A2F2D2A,2]F,2D,,2 | 
[V:1] f'z/g'/_a'3_c' | 
[V:2] [_D,2_D,,2][K:clef=treble]!arpeggio![_c2F2_D2_A,2]!arpeggio![c2F2D2A,2][K:clef=bass] | 
[V:1] {/=b} d'c'_bg dz/c/ | 
[V:2] [C,2C,,2][K:clef=treble]!arpeggio![c2E2G,2][BEC] z[K:clef=bass] | 
[V:1] Fz/A/=B3d | 
[V:2] F,,2[D2^G,2F,2][D2G,2F,2] | 
[V:1] c!mordent!GFGAz/C/ | 
[V:2] [C2A,2F,2][C2A,2F,2][CB,F,] z | 
[V:1] (3FAa[=b3=B3][d'd] | 
[V:2] F,,2[D2^G,2F,2][D2G,2F,2] | 
[V:1] [c'c] !mordent!gfgaf | 
[V:2] [C2G,2E,2][C2A,2_E,2][C2F,2E,2] | 
[V:1] (3bb'[a'a]!accent![^g'4^g4] | 
[V:2] [B,2F,2D,2][=B,2F,2D,2][B,2E,2D,2] | 
[V:1] (3aa'[g'g]!accent![^f'4^f4] | 
[V:2] [A,2E,2^C,2][A,2_E,2=C,2][A,2D,2C,2] | 
[V:1] {/g}!accent![g'2g2]g'/=f'/g'/f'/ e'/d'/e'/d'/ | 
[V:2] [G,2D,2B,,2][G2D2B,2][G2D2B,2] | 
[V:1] ^c'z/d'/ gabg | 
[V:2] [G2D2B,2][G2D2B,2][G2D2B,2] | 
[V:1] cz/e/f3a | 
[V:2] [G2E2C2B,2][F2C2A,2][F2C2A,2] | 
[V:1] (3=b^d'^f' (3a'=b'^d'' e'' z | 
[V:2] [^F2^D2=B,2A,2][F2D2B,2A,2][E2B,2^G,2] | 
[V:1] Az/^c/d3^f | 
[V:2] [E2^C2A,2=G,2][D2A,2^F,2][D2A,2F,2] | 
[V:1] (3g=bd' (3g'=b'd'' .c' z | 
[V:2] [D2=B,2G,2=F,2][D2B,2G,2F,2][C2G,2E,2] | 
[V:1] ^Fz/^A/=B3^d | 
[V:2] [C2^A,2^F,2E,2][=B,2F,2^D,2][B,2F,2D,2] | 
[V:1] (3e^g=b (3d'e'^g' .a' z | 
[V:2] [=B,2^G,2E,2=D,2][B,2G,2E,2D,2][A,2E,2^C,2] | 
[V:1] Dz/^F/G3_B | 
[V:2] [A,2^F,2D,2=C,2][G,2D,2_B,,2][G,2D,2B,,2] | 
[V:1] (3ceg (3c'e'g' .f' z | 
[V:2] [G,2E,2C,2B,,2][G,2E,2C,2B,,2][F,2C,2A,,2] | 
[V:1] f'' z_A2!accent!GF & x2_C4 | 
[V:2] x2F,2G,_A, & _D,,2_D,4 | 
[V:1] .f z!trill!_A2GF & x2_C4 | 
[V:2] x2F,2G,_A, & _D,,2_D,4 | 
[V:1] _A_cf_a_c'_f' | 
[V:2] _D,,2z2z2[K:clef=treble] | 
[V:1] f'_c'_a'_a_c''z/f/ | 
[V:2] [_c2F2_D2]z2z2 | 
[V:1] =c''2!trill!a'z/g'/ !trill!f'z/e'/ | 
[V:2] [c2A2F2C2]z2z2[K:clef=bass] | 
[V:1] !trill!d'z/c'/ bz/a/ gz/f/ | 
[V:2] !arpeggio![F2A,2C,2]z2z2 | 
[V:1] !trill!e>d !trill!c>=B !trill!B3/A/ | 
[V:2] !arpeggio![E2B,2G,2C,2]z2z2 | 
[V:1] !trill!G>F !trill!E>D !trill!C3/B,/ | 
[V:2] z6 | 
[V:1] [A,F,][C2C,2]<=B,2D & x2_A,G,A,F, | 
[V:2] [F,,2F,,,2][F,,4F,,,4] | 
[V:1] C2C2C2 & A,G,A,F,G,C, | 
[V:2] [F,,2F,,,2][F,,2F,,,2][F,,2F,,,2] | 
[V:1] A,C2<=B,2D & F, z _A,G,A,F, | 
[V:2] [F,,2F,,,2][F,,4F,,,4] | 
[V:1] C2C2C2 & A,G,A,F,G,C, | 
[V:2] [F,,2F,,,2][F,,2F,,,2][F,,2F,,,2] | 
[V:1] A,C2<=B,2D & F, z _A,G,A,F, | 
[V:2] [F,,2F,,,2][F,,4F,,,4] | 
[V:1] C2C2C2 & A,G,A,F,G,C, | 
[V:2] [F,,2F,,,2][F,,2F,,,2][F,,2F,,,2] | 
[V:1] C2C2C2 & A,G,A,F,G,_B, | 
[V:2] [F,,2F,,,2][F,,2F,,,2][F,,2F,,,2] | 
[V:1] C2C2C2 & A,G,A,F,G,C, | 
[V:2] [F,,2F,,,2][F,,2F,,,2][F,,2F,,,2] | 
[V:1] [CA,C,] d''c''g'f'b' | 
[V:2] [F,,F,,,][K:clef=treble] d'c'gfb | 
[V:1] a'd'c'g'f'b | 
[V:2] adcgfB | 
[V:1] ad'c'gfb | 
[V:2] AdcGFB | 
[V:1] adcgfB | 
[V:2] ADCGFB,[K:clef=bass] | 
[V:1] AdcGFB | 
[V:2] A,DCG,F,B, | 
[V:1] ADCGFB, | 
[V:2] A,D,C,G,F,B,, | 
[V:1] A,DCG,F,B, | 
[V:2] A,,D,C,G,,F,,B,, | 
[V:1] A,D,C,G,F,A,, | 
[V:2] A,,D,,C,,G,,F,,A,,, | 
[V:1] F,,2z2z2 | 
[V:2] F,,,2z2z2 | 
[V:1] [c6G6E6C6] | 
[V:2] [C,6C,,6] | 
[V:1] [c2A2F2C2]z2z2 | 
[V:2] [F,2F,,2]z2z2 | 
[V:1] [c'2g2e2c2]z2z2 | 
[V:2] [C,2C,,2]z2z2 | 
[V:1] [f'2c'2a2f2]z2z2 |]  
[V:2] [F,,2F,,,2]z2z2 |]
